X:85
T:High Level hornpipe, The
R:Hornpipe
C:James Hill
A:Northumberland
O:England
M:4/4
Z:posted by Toby Rider 8/97
K:Bb
dc|\
Bd FB DF Bd|fb df Bd c=B|\
ce Ac FA ce|gf =ef gf _ec|\
Bd FB DF Bd|fb df Bd cB|\
GA Bc de =ef|gf ec B2::\
cB|\
Af cf Af df|AF Ad fd Ac|\
df Bf df Bf|dB df bf df|\
=eg cg eg cg|=ec eg bg eg|\
fe fa gb eg|f=e fg f=e dc:|
